X:1
T:Title
L:1/8
M:6/8
K:D
V:1 treble nm="Grand Piano"
V:1
 z3 z2[Q:1/4=160] A | A3 F2 E | D3 A,2 A, | A2 B A2 G | G3- G2 G | G3 E2 D | C3 C2 C | G2 A G2 F | %8
 F3- F2 F | B3 B2 B | B3 E2 E | E3 F2 G | A3- A2 B | B3 F2 G | A3 E2 F | G3 C2 E | D3- D2 B | %17
 B3 F2 G | A3 E2 F | G3 C2 E | D3- D2 A | d3 d2 d | d3 dcd | e3 c2 B | G3- G2 c | c3 c2 c | %26
 c3 c2 B | A2 B A2 G | F3- F2 F | ^A3 A2 A | ^A3 A2 A | d2 c ^A2 c | A3- A2 B | B3 F2 G | A3 E2 F | %35
 G3 C2 E | D3- D2 B | B3 F2 G | A3 E2 F | G3 C2 E | D6 |] %41

